static/img/kroki/67c00cc70fa688aeccc645f5d78943bf.svg

<?xml version="1.0" encoding="us-ascii" standalone="no"?><svg xmlns="http://www.w3.org/2000/svg" xmlns:xlink="http://www.w3.org/1999/xlink" contentStyleType="text/css" height="1140px" preserveAspectRatio="none" style="width:632px;height:1140px;" version="1.1" viewBox="0 0 632 1140" width="632px" zoomAndPan="magnify"><defs/><g><!--class kubernetes_priority_level_configuration--><g id="elem_kubernetes_priority_level_configuration"><rect codeLine="23" fill="#3D176E" height="74.0859" id="kubernetes_priority_level_configuration" rx="2.5" ry="2.5" style="stroke:#000D19;stroke-width:0.5;" width="618" x="7" y="686.43"/><ellipse cx="140.25" cy="706.3245" fill="#ADD1B2" rx="11" ry="11" style="stroke:#181818;stroke-width:1.0;"/><path d="M143.2188,711.9652 Q142.6406,712.262 142,712.4027 Q141.3594,712.5589 140.6563,712.5589 Q138.1563,712.5589 136.8281,710.9183 Q135.5156,709.262 135.5156,706.137 Q135.5156,703.012 136.8281,701.3558 Q138.1563,699.6995 140.6563,699.6995 Q141.3594,699.6995 142,699.8558 Q142.6563,700.012 143.2188,700.3089 L143.2188,703.0277 Q142.5938,702.4495 142,702.1839 Q141.4063,701.9027 140.7813,701.9027 Q139.4375,701.9027 138.75,702.9808 Q138.0625,704.0433 138.0625,706.137 Q138.0625,708.2308 138.75,709.3089 Q139.4375,710.3714 140.7813,710.3714 Q141.4063,710.3714 142,710.1058 Q142.5938,709.8245 143.2188,709.2464 L143.2188,711.9652 Z " fill="#000000"/><text fill="#D9B8FF" font-family="Helvetica" font-size="17" lengthAdjust="spacing" textLength="333" x="165.75" y="712.2098">kubernetes_priority_level_configuration</text><line style="stroke:#000D19;stroke-width:0.5;" x1="8" x2="624" y1="726.2191" y2="726.2191"/><text fill="#D9B8FF" font-family="sans-serif" font-size="14" font-weight="bold" lengthAdjust="spacing" textLength="269" x="18" y="748.2142">priority_level_configuration_status</text><text fill="#D9B8FF" font-family="sans-serif" font-size="14" lengthAdjust="spacing" textLength="327" x="287" y="748.2142">: kubernetes_priority_level_configuration_status</text></g><!--class kubernetes_priority_level_configuration_status--><g id="elem_kubernetes_priority_level_configuration_status"><rect codeLine="26" fill="#3D176E" height="74.0859" id="kubernetes_priority_level_configuration_status" rx="2.5" ry="2.5" style="stroke:#000D19;stroke-width:0.5;" width="520" x="56" y="820.52"/><ellipse cx="110.25" cy="840.4145" fill="#ADD1B2" rx="11" ry="11" style="stroke:#181818;stroke-width:1.0;"/><path d="M113.2188,846.0552 Q112.6406,846.352 112,846.4927 Q111.3594,846.6489 110.6563,846.6489 Q108.1563,846.6489 106.8281,845.0083 Q105.5156,843.352 105.5156,840.227 Q105.5156,837.102 106.8281,835.4458 Q108.1563,833.7895 110.6563,833.7895 Q111.3594,833.7895 112,833.9458 Q112.6563,834.102 113.2188,834.3989 L113.2188,837.1177 Q112.5938,836.5395 112,836.2739 Q111.4063,835.9927 110.7813,835.9927 Q109.4375,835.9927 108.75,837.0708 Q108.0625,838.1333 108.0625,840.227 Q108.0625,842.3208 108.75,843.3989 Q109.4375,844.4614 110.7813,844.4614 Q111.4063,844.4614 112,844.1958 Q112.5938,843.9145 113.2188,843.3364 L113.2188,846.0552 Z " fill="#000000"/><text fill="#D9B8FF" font-family="Helvetica" font-size="17" lengthAdjust="spacing" textLength="393" x="135.75" y="846.2998">kubernetes_priority_level_configuration_status</text><line style="stroke:#000D19;stroke-width:0.5;" x1="57" x2="575" y1="860.3091" y2="860.3091"/><text fill="#D9B8FF" font-family="sans-serif" font-size="14" font-weight="bold" lengthAdjust="spacing" textLength="82" x="67" y="882.3042">conditions</text><text fill="#D9B8FF" font-family="sans-serif" font-size="14" lengthAdjust="spacing" textLength="416" x="149" y="882.3042">: kubernetes_priority_level_configuration_status_conditions[]</text></g><!--class kubernetes_priority_level_configuration_status_conditions--><g id="elem_kubernetes_priority_level_configuration_status_conditions"><rect codeLine="29" fill="#3D176E" height="179.2734" id="kubernetes_priority_level_configuration_status_conditions" rx="2.5" ry="2.5" style="stroke:#000D19;stroke-width:0.5;" width="529" x="51.5" y="954.61"/><ellipse cx="66.5" cy="974.5045" fill="#ADD1B2" rx="11" ry="11" style="stroke:#181818;stroke-width:1.0;"/><path d="M69.4688,980.1452 Q68.8906,980.442 68.25,980.5827 Q67.6094,980.7389 66.9063,980.7389 Q64.4063,980.7389 63.0781,979.0983 Q61.7656,977.442 61.7656,974.317 Q61.7656,971.192 63.0781,969.5358 Q64.4063,967.8795 66.9063,967.8795 Q67.6094,967.8795 68.25,968.0358 Q68.9063,968.192 69.4688,968.4889 L69.4688,971.2077 Q68.8438,970.6295 68.25,970.3639 Q67.6563,970.0827 67.0313,970.0827 Q65.6875,970.0827 65,971.1608 Q64.3125,972.2233 64.3125,974.317 Q64.3125,976.4108 65,977.4889 Q65.6875,978.5514 67.0313,978.5514 Q67.6563,978.5514 68.25,978.2858 Q68.8438,978.0045 69.4688,977.4264 L69.4688,980.1452 Z " fill="#000000"/><text fill="#D9B8FF" font-family="Helvetica" font-size="17" lengthAdjust="spacing" textLength="487" x="85.5" y="980.3898">kubernetes_priority_level_configuration_status_conditions</text><line style="stroke:#000D19;stroke-width:0.5;" x1="52.5" x2="579.5" y1="994.3991" y2="994.3991"/><text fill="#D9B8FF" font-family="sans-serif" font-size="14" font-weight="bold" lengthAdjust="spacing" textLength="151" x="62.5" y="1016.3942">last_transition_time</text><text fill="#D9B8FF" font-family="sans-serif" font-size="14" lengthAdjust="spacing" textLength="70" x="213.5" y="1016.3942">: datetime</text><text fill="#D9B8FF" font-family="sans-serif" font-size="14" font-weight="bold" lengthAdjust="spacing" textLength="71" x="62.5" y="1042.6911">message</text><text fill="#D9B8FF" font-family="sans-serif" font-size="14" lengthAdjust="spacing" textLength="48" x="133.5" y="1042.6911">: string</text><text fill="#D9B8FF" font-family="sans-serif" font-size="14" font-weight="bold" lengthAdjust="spacing" textLength="55" x="62.5" y="1068.9879">reason</text><text fill="#D9B8FF" font-family="sans-serif" font-size="14" lengthAdjust="spacing" textLength="48" x="117.5" y="1068.9879">: string</text><text fill="#D9B8FF" font-family="sans-serif" font-size="14" font-weight="bold" lengthAdjust="spacing" textLength="49" x="62.5" y="1095.2848">status</text><text fill="#D9B8FF" font-family="sans-serif" font-size="14" lengthAdjust="spacing" textLength="48" x="111.5" y="1095.2848">: string</text><text fill="#D9B8FF" font-family="sans-serif" font-size="14" font-weight="bold" lengthAdjust="spacing" textLength="35" x="62.5" y="1121.5817">type</text><text fill="#D9B8FF" font-family="sans-serif" font-size="14" lengthAdjust="spacing" textLength="48" x="97.5" y="1121.5817">: string</text></g><!--class kubernetes_resource--><g id="elem_kubernetes_resource"><rect codeLine="36" fill="#3D176E" height="126.6797" id="kubernetes_resource" rx="2.5" ry="2.5" style="stroke:#000D19;stroke-width:0.5;" width="239" x="196.5" y="438.76"/><ellipse cx="221.85" cy="458.6545" fill="#ADD1B2" rx="11" ry="11" style="stroke:#181818;stroke-width:1.0;"/><path d="M224.8188,464.2952 Q224.2406,464.592 223.6,464.7327 Q222.9594,464.8889 222.2563,464.8889 Q219.7563,464.8889 218.4281,463.2483 Q217.1156,461.592 217.1156,458.467 Q217.1156,455.342 218.4281,453.6858 Q219.7563,452.0295 222.2563,452.0295 Q222.9594,452.0295 223.6,452.1858 Q224.2563,452.342 224.8188,452.6389 L224.8188,455.3577 Q224.1938,454.7795 223.6,454.5139 Q223.0063,454.2327 222.3813,454.2327 Q221.0375,454.2327 220.35,455.3108 Q219.6625,456.3733 219.6625,458.467 Q219.6625,460.5608 220.35,461.6389 Q221.0375,462.7014 222.3813,462.7014 Q223.0063,462.7014 223.6,462.4358 Q224.1938,462.1545 224.8188,461.5764 L224.8188,464.2952 Z " fill="#000000"/><text fill="#D9B8FF" font-family="Helvetica" font-size="17" lengthAdjust="spacing" textLength="174" x="243.15" y="464.5398">kubernetes_resource</text><line style="stroke:#000D19;stroke-width:0.5;" x1="197.5" x2="434.5" y1="478.5491" y2="478.5491"/><text fill="#D9B8FF" font-family="sans-serif" font-size="14" font-weight="bold" lengthAdjust="spacing" textLength="46" x="207.5" y="500.5442">labels</text><text fill="#D9B8FF" font-family="sans-serif" font-size="14" lengthAdjust="spacing" textLength="171" x="253.5" y="500.5442">: dictionary[string, string]</text><text fill="#D9B8FF" font-family="sans-serif" font-size="14" font-weight="bold" lengthAdjust="spacing" textLength="90" x="207.5" y="526.8411">namespace</text><text fill="#D9B8FF" font-family="sans-serif" font-size="14" lengthAdjust="spacing" textLength="48" x="297.5" y="526.8411">: string</text><text fill="#D9B8FF" font-family="sans-serif" font-size="14" font-weight="bold" lengthAdjust="spacing" textLength="138" x="207.5" y="553.1379">resource_version</text><text fill="#D9B8FF" font-family="sans-serif" font-size="14" lengthAdjust="spacing" textLength="48" x="345.5" y="553.1379">: string</text></g><!--class resource--><g id="elem_resource"><rect codeLine="41" fill="#3D176E" height="310.7578" id="resource" rx="2.5" ry="2.5" style="stroke:#000D19;stroke-width:0.5;" width="227" x="202.5" y="7"/><ellipse cx="271.25" cy="26.8945" fill="#ADD1B2" rx="11" ry="11" style="stroke:#181818;stroke-width:1.0;"/><path d="M274.2188,32.5352 Q273.6406,32.832 273,32.9727 Q272.3594,33.1289 271.6563,33.1289 Q269.1563,33.1289 267.8281,31.4883 Q266.5156,29.832 266.5156,26.707 Q266.5156,23.582 267.8281,21.9258 Q269.1563,20.2695 271.6563,20.2695 Q272.3594,20.2695 273,20.4258 Q273.6563,20.582 274.2188,20.8789 L274.2188,23.5977 Q273.5938,23.0195 273,22.7539 Q272.4063,22.4727 271.7813,22.4727 Q270.4375,22.4727 269.75,23.5508 Q269.0625,24.6133 269.0625,26.707 Q269.0625,28.8008 269.75,29.8789 Q270.4375,30.9414 271.7813,30.9414 Q272.4063,30.9414 273,30.6758 Q273.5938,30.3945 274.2188,29.8164 L274.2188,32.5352 Z " fill="#000000"/><text fill="#D9B8FF" font-family="Helvetica" font-size="17" lengthAdjust="spacing" textLength="71" x="296.75" y="32.7798">resource</text><line style="stroke:#000D19;stroke-width:0.5;" x1="203.5" x2="428.5" y1="46.7891" y2="46.7891"/><text fill="#D9B8FF" font-family="sans-serif" font-size="14" font-weight="bold" lengthAdjust="spacing" textLength="29" x="213.5" y="68.7842">age</text><text fill="#D9B8FF" font-family="sans-serif" font-size="14" lengthAdjust="spacing" textLength="66" x="242.5" y="68.7842">: duration</text><text fill="#D9B8FF" font-family="sans-serif" font-size="14" font-weight="bold" lengthAdjust="spacing" textLength="43" x="213.5" y="95.0811">atime</text><text fill="#D9B8FF" font-family="sans-serif" font-size="14" lengthAdjust="spacing" textLength="70" x="256.5" y="95.0811">: datetime</text><text fill="#D9B8FF" font-family="sans-serif" font-size="14" font-weight="bold" lengthAdjust="spacing" textLength="43" x="213.5" y="121.3779">ctime</text><text fill="#D9B8FF" font-family="sans-serif" font-size="14" lengthAdjust="spacing" textLength="70" x="256.5" y="121.3779">: datetime</text><text fill="#D9B8FF" font-family="sans-serif" font-size="14" font-weight="bold" lengthAdjust="spacing" textLength="14" x="213.5" y="147.6748">id</text><text fill="#D9B8FF" font-family="sans-serif" font-size="14" lengthAdjust="spacing" textLength="48" x="227.5" y="147.6748">: string</text><text fill="#D9B8FF" font-family="sans-serif" font-size="14" font-weight="bold" lengthAdjust="spacing" textLength="33" x="213.5" y="173.9717">kind</text><text fill="#D9B8FF" font-family="sans-serif" font-size="14" lengthAdjust="spacing" textLength="48" x="246.5" y="173.9717">: string</text><text fill="#D9B8FF" font-family="sans-serif" font-size="14" font-weight="bold" lengthAdjust="spacing" textLength="90" x="213.5" y="200.2686">last_access</text><text fill="#D9B8FF" font-family="sans-serif" font-size="14" lengthAdjust="spacing" textLength="66" x="303.5" y="200.2686">: duration</text><text fill="#D9B8FF" font-family="sans-serif" font-size="14" font-weight="bold" lengthAdjust="spacing" textLength="90" x="213.5" y="226.5654">last_update</text><text fill="#D9B8FF" font-family="sans-serif" font-size="14" lengthAdjust="spacing" textLength="66" x="303.5" y="226.5654">: duration</text><text fill="#D9B8FF" font-family="sans-serif" font-size="14" font-weight="bold" lengthAdjust="spacing" textLength="48" x="213.5" y="252.8623">mtime</text><text fill="#D9B8FF" font-family="sans-serif" font-size="14" lengthAdjust="spacing" textLength="70" x="261.5" y="252.8623">: datetime</text><text fill="#D9B8FF" font-family="sans-serif" font-size="14" font-weight="bold" lengthAdjust="spacing" textLength="43" x="213.5" y="279.1592">name</text><text fill="#D9B8FF" font-family="sans-serif" font-size="14" lengthAdjust="spacing" textLength="48" x="256.5" y="279.1592">: string</text><text fill="#D9B8FF" font-family="sans-serif" font-size="14" font-weight="bold" lengthAdjust="spacing" textLength="34" x="213.5" y="305.4561">tags</text><text fill="#D9B8FF" font-family="sans-serif" font-size="14" lengthAdjust="spacing" textLength="171" x="247.5" y="305.4561">: dictionary[string, string]</text></g><!--link kubernetes_priority_level_configuration to kubernetes_priority_level_configuration_status--><g id="link_kubernetes_priority_level_configuration_kubernetes_priority_level_configuration_status"><path codeLine="53" d="M316,760.92 C316,779.4 316,795.78 316,814.24 " fill="none" id="kubernetes_priority_level_configuration-to-kubernetes_priority_level_configuration_status" style="stroke:#FFAF37;stroke-width:2.0;"/><polygon fill="#FFAF37" points="316,820.24,320,811.24,316,815.24,312,811.24,316,820.24" style="stroke:#FFAF37;stroke-width:2.0;"/></g><!--reverse link kubernetes_resource to kubernetes_priority_level_configuration--><g id="link_kubernetes_resource_kubernetes_priority_level_configuration"><path codeLine="54" d="M316,583.67 C316,622.68 316,653.5 316,686.21 " fill="none" id="kubernetes_resource-backto-kubernetes_priority_level_configuration" style="stroke:#FFAF37;stroke-width:2.0;"/><polygon fill="none" points="316,565.67,310,583.67,322,583.67,316,565.67" style="stroke:#FFAF37;stroke-width:2.0;"/></g><!--link kubernetes_priority_level_configuration_status to kubernetes_priority_level_configuration_status_conditions--><g id="link_kubernetes_priority_level_configuration_status_kubernetes_priority_level_configuration_status_conditions"><path codeLine="55" d="M316,895.05 C316,912.18 316,927.43 316,948.43 " fill="none" id="kubernetes_priority_level_configuration_status-to-kubernetes_priority_level_configuration_status_conditions" style="stroke:#FFAF37;stroke-width:2.0;"/><polygon fill="#FFAF37" points="316,954.43,320,945.43,316,949.43,312,945.43,316,954.43" style="stroke:#FFAF37;stroke-width:2.0;"/></g><!--reverse link resource to kubernetes_resource--><g id="link_resource_kubernetes_resource"><path codeLine="56" d="M316,335.9 C316,378.46 316,404.23 316,438.32 " fill="none" id="resource-backto-kubernetes_resource" style="stroke:#FFAF37;stroke-width:2.0;"/><polygon fill="none" points="316,317.9,310,335.9,322,335.9,316,317.9" style="stroke:#FFAF37;stroke-width:2.0;"/></g><!--SRC=[dLHDRzim3BtxLmZeBQY1P4MNPXW6T066zb8Cwsv5OIWIxGYn9OEYKsHR__iansdbZtprPZm-FZvIf9TA0eEYf0qhe5W0siYkb2uvyeBT8fgNkSaDieiqvUdLj1lyOJGT9Jpm0jWTv6iW9NYNyNkfn4g3jUnJ4FhEnIf3KscvbIVasheGQ0fOyvnRUqk4Qb4H16RaR76JfbrcL_JYIawcdw57CoW16yfuF9QJMPTojDJ1ljyOZ-eFi4auj0T3qBFPAr6p3hhqZC1ahz5TVA_7drnAfJDs7M2_jfvG0xRmnoMNviMpKvxRi8mbG32qAM7UwmfcDpAT3fBlzv4ZuKV7LfNRL0q4DYbH6LIqIN9OGvu8erELLSX96St-HgFH8K9YYLDbHwClfqes6T7hUKwQjDgG2qZbmG_KJTwJdvu_Q2BGgFqu2Khg-wh1X5G1tfda1FxRKGftdZohKUkEJMSEG-3Mw1RqFiqtoBzc00muHh2cGW6DbmNajO9KmhlXk7dQvbus6i-EfjtMkh-1w3hQAYLhznjJBM-xkgrYJKUo6Oz71deN0vYIhS9kWzj0FL8kX1jRfq8TgKglrOaK0tLyd-rnykpOT5wZKwyZZh-Tk_P3x_RrNnp7fmf5PnxC-Hw3zOxsUzn5ely0]--></g></svg>

<svg xmlns="http://www.w3.org/2000/svg" width="632" height="1140" viewBox="0 0 632 1140"><rect width="618" height="74.086" x="7" y="686.43" fill="#3D176E" rx="2.5" ry="2.5" style="stroke:#000d19;stroke-width:.5"/><circle cx="140.25" cy="706.324" r="11" fill="#ADD1B2" style="stroke:#181818;stroke-width:1"/><path d="M143.219 711.965q-.578.297-1.219.438-.64.156-1.344.156-2.5 0-3.828-1.64-1.312-1.657-1.312-4.782t1.312-4.781q1.328-1.657 3.828-1.657.703 0 1.344.157.656.156 1.219.453v2.719q-.625-.579-1.219-.844-.594-.281-1.219-.281-1.344 0-2.031 1.078-.687 1.062-.687 3.156t.687 3.172q.688 1.062 2.031 1.062.625 0 1.219-.265.594-.282 1.219-.86z"/><text x="165.75" y="712.21" fill="#D9B8FF" font-family="Helvetica" font-size="17" textLength="333">kubernetes_priority_level_configuration</text><path d="M8 726.219h616" style="stroke:#000d19;stroke-width:.5"/><text x="18" y="748.214" fill="#D9B8FF" font-family="sans-serif" font-size="14" font-weight="bold" textLength="269">priority_level_configuration_status</text><text x="287" y="748.214" fill="#D9B8FF" font-family="sans-serif" font-size="14" textLength="327">: kubernetes_priority_level_configuration_status</text><rect width="520" height="74.086" x="56" y="820.52" fill="#3D176E" rx="2.5" ry="2.5" style="stroke:#000d19;stroke-width:.5"/><circle cx="110.25" cy="840.414" r="11" fill="#ADD1B2" style="stroke:#181818;stroke-width:1"/><path d="M113.219 846.055q-.578.297-1.219.438-.64.156-1.344.156-2.5 0-3.828-1.64-1.312-1.657-1.312-4.782t1.312-4.781q1.328-1.657 3.828-1.657.703 0 1.344.157.656.156 1.219.453v2.719q-.625-.579-1.219-.844-.594-.281-1.219-.281-1.344 0-2.031 1.078-.687 1.062-.687 3.156t.687 3.172q.688 1.062 2.031 1.062.625 0 1.219-.265.594-.282 1.219-.86z"/><text x="135.75" y="846.3" fill="#D9B8FF" font-family="Helvetica" font-size="17" textLength="393">kubernetes_priority_level_configuration_status</text><path d="M57 860.309h518" style="stroke:#000d19;stroke-width:.5"/><text x="67" y="882.304" fill="#D9B8FF" font-family="sans-serif" font-size="14" font-weight="bold" textLength="82">conditions</text><text x="149" y="882.304" fill="#D9B8FF" font-family="sans-serif" font-size="14" textLength="416">: kubernetes_priority_level_configuration_status_conditions[]</text><rect width="529" height="179.273" x="51.5" y="954.61" fill="#3D176E" rx="2.5" ry="2.5" style="stroke:#000d19;stroke-width:.5"/><circle cx="66.5" cy="974.505" r="11" fill="#ADD1B2" style="stroke:#181818;stroke-width:1"/><path d="M69.469 980.145q-.578.297-1.219.438-.64.156-1.344.156-2.5 0-3.828-1.64-1.312-1.657-1.312-4.782t1.312-4.781q1.328-1.656 3.828-1.656.703 0 1.344.156.656.156 1.219.453v2.719q-.625-.578-1.219-.844-.594-.281-1.219-.281-1.344 0-2.031 1.078-.687 1.062-.687 3.156t.687 3.172q.688 1.062 2.031 1.062.625 0 1.219-.265.594-.281 1.219-.86z"/><text x="85.5" y="980.39" fill="#D9B8FF" font-family="Helvetica" font-size="17" textLength="487">kubernetes_priority_level_configuration_status_conditions</text><path d="M52.5 994.399h527" style="stroke:#000d19;stroke-width:.5"/><text x="62.5" y="1016.394" fill="#D9B8FF" font-family="sans-serif" font-size="14" font-weight="bold" textLength="151">last_transition_time</text><text x="213.5" y="1016.394" fill="#D9B8FF" font-family="sans-serif" font-size="14" textLength="70">: datetime</text><text x="62.5" y="1042.691" fill="#D9B8FF" font-family="sans-serif" font-size="14" font-weight="bold" textLength="71">message</text><text x="133.5" y="1042.691" fill="#D9B8FF" font-family="sans-serif" font-size="14" textLength="48">: string</text><text x="62.5" y="1068.988" fill="#D9B8FF" font-family="sans-serif" font-size="14" font-weight="bold" textLength="55">reason</text><text x="117.5" y="1068.988" fill="#D9B8FF" font-family="sans-serif" font-size="14" textLength="48">: string</text><text x="62.5" y="1095.285" fill="#D9B8FF" font-family="sans-serif" font-size="14" font-weight="bold" textLength="49">status</text><text x="111.5" y="1095.285" fill="#D9B8FF" font-family="sans-serif" font-size="14" textLength="48">: string</text><text x="62.5" y="1121.582" fill="#D9B8FF" font-family="sans-serif" font-size="14" font-weight="bold" textLength="35">type</text><text x="97.5" y="1121.582" fill="#D9B8FF" font-family="sans-serif" font-size="14" textLength="48">: string</text><rect width="239" height="126.68" x="196.5" y="438.76" fill="#3D176E" rx="2.5" ry="2.5" style="stroke:#000d19;stroke-width:.5"/><circle cx="221.85" cy="458.654" r="11" fill="#ADD1B2" style="stroke:#181818;stroke-width:1"/><path d="M224.819 464.295q-.578.297-1.219.438-.64.156-1.344.156-2.5 0-3.828-1.64-1.312-1.657-1.312-4.782t1.312-4.781q1.328-1.656 3.828-1.656.703 0 1.344.156.656.156 1.219.453v2.719q-.625-.579-1.219-.844-.594-.281-1.219-.281-1.344 0-2.031 1.078-.687 1.062-.687 3.156t.687 3.172q.688 1.062 2.031 1.062.625 0 1.219-.265.594-.281 1.219-.86z"/><text x="243.15" y="464.54" fill="#D9B8FF" font-family="Helvetica" font-size="17" textLength="174">kubernetes_resource</text><path d="M197.5 478.549h237" style="stroke:#000d19;stroke-width:.5"/><text x="207.5" y="500.544" fill="#D9B8FF" font-family="sans-serif" font-size="14" font-weight="bold" textLength="46">labels</text><text x="253.5" y="500.544" fill="#D9B8FF" font-family="sans-serif" font-size="14" textLength="171">: dictionary[string, string]</text><text x="207.5" y="526.841" fill="#D9B8FF" font-family="sans-serif" font-size="14" font-weight="bold" textLength="90">namespace</text><text x="297.5" y="526.841" fill="#D9B8FF" font-family="sans-serif" font-size="14" textLength="48">: string</text><text x="207.5" y="553.138" fill="#D9B8FF" font-family="sans-serif" font-size="14" font-weight="bold" textLength="138">resource_version</text><text x="345.5" y="553.138" fill="#D9B8FF" font-family="sans-serif" font-size="14" textLength="48">: string</text><rect width="227" height="310.758" x="202.5" y="7" fill="#3D176E" rx="2.5" ry="2.5" style="stroke:#000d19;stroke-width:.5"/><circle cx="271.25" cy="26.895" r="11" fill="#ADD1B2" style="stroke:#181818;stroke-width:1"/><path d="M274.219 32.535q-.578.297-1.219.438-.64.156-1.344.156-2.5 0-3.828-1.64-1.312-1.657-1.312-4.782t1.312-4.781q1.328-1.656 3.828-1.656.703 0 1.344.156.656.156 1.219.453v2.719q-.625-.578-1.219-.844-.594-.281-1.219-.281-1.344 0-2.031 1.078-.687 1.062-.687 3.156t.687 3.172q.688 1.062 2.031 1.062.625 0 1.219-.265.594-.281 1.219-.86z"/><text x="296.75" y="32.78" fill="#D9B8FF" font-family="Helvetica" font-size="17" textLength="71">resource</text><path d="M203.5 46.789h225" style="stroke:#000d19;stroke-width:.5"/><text x="213.5" y="68.784" fill="#D9B8FF" font-family="sans-serif" font-size="14" font-weight="bold" textLength="29">age</text><text x="242.5" y="68.784" fill="#D9B8FF" font-family="sans-serif" font-size="14" textLength="66">: duration</text><text x="213.5" y="95.081" fill="#D9B8FF" font-family="sans-serif" font-size="14" font-weight="bold" textLength="43">atime</text><text x="256.5" y="95.081" fill="#D9B8FF" font-family="sans-serif" font-size="14" textLength="70">: datetime</text><text x="213.5" y="121.378" fill="#D9B8FF" font-family="sans-serif" font-size="14" font-weight="bold" textLength="43">ctime</text><text x="256.5" y="121.378" fill="#D9B8FF" font-family="sans-serif" font-size="14" textLength="70">: datetime</text><text x="213.5" y="147.675" fill="#D9B8FF" font-family="sans-serif" font-size="14" font-weight="bold" textLength="14">id</text><text x="227.5" y="147.675" fill="#D9B8FF" font-family="sans-serif" font-size="14" textLength="48">: string</text><text x="213.5" y="173.972" fill="#D9B8FF" font-family="sans-serif" font-size="14" font-weight="bold" textLength="33">kind</text><text x="246.5" y="173.972" fill="#D9B8FF" font-family="sans-serif" font-size="14" textLength="48">: string</text><text x="213.5" y="200.269" fill="#D9B8FF" font-family="sans-serif" font-size="14" font-weight="bold" textLength="90">last_access</text><text x="303.5" y="200.269" fill="#D9B8FF" font-family="sans-serif" font-size="14" textLength="66">: duration</text><text x="213.5" y="226.565" fill="#D9B8FF" font-family="sans-serif" font-size="14" font-weight="bold" textLength="90">last_update</text><text x="303.5" y="226.565" fill="#D9B8FF" font-family="sans-serif" font-size="14" textLength="66">: duration</text><text x="213.5" y="252.862" fill="#D9B8FF" font-family="sans-serif" font-size="14" font-weight="bold" textLength="48">mtime</text><text x="261.5" y="252.862" fill="#D9B8FF" font-family="sans-serif" font-size="14" textLength="70">: datetime</text><text x="213.5" y="279.159" fill="#D9B8FF" font-family="sans-serif" font-size="14" font-weight="bold" textLength="43">name</text><text x="256.5" y="279.159" fill="#D9B8FF" font-family="sans-serif" font-size="14" textLength="48">: string</text><text x="213.5" y="305.456" fill="#D9B8FF" font-family="sans-serif" font-size="14" font-weight="bold" textLength="34">tags</text><text x="247.5" y="305.456" fill="#D9B8FF" font-family="sans-serif" font-size="14" textLength="171">: dictionary[string, string]</text><path fill="none" d="M316 760.92v53.32" style="stroke:#ffaf37;stroke-width:2"/><path fill="#FFAF37" d="m316 820.24 4-9-4 4-4-4z" style="stroke:#ffaf37;stroke-width:2"/><path fill="none" d="M316 583.67v102.54m0-120.54-6 18h12zm0 329.38v53.38" style="stroke:#ffaf37;stroke-width:2"/><path fill="#FFAF37" d="m316 954.43 4-9-4 4-4-4z" style="stroke:#ffaf37;stroke-width:2"/><path fill="none" d="M316 335.9v102.42m0-120.42-6 18h12z" style="stroke:#ffaf37;stroke-width:2"/></svg>
